src/view/frontend/web/svg/heroicons/solid/phone-outgoing.svg

<svg viewBox="0 0 20 20" fill="currentColor" xmlns="http://www.w3.org/2000/svg">
<path d="M17.9241 2.61722C17.8757 2.50014 17.804 2.3904 17.7092 2.29502C17.7078 2.2936 17.7064 2.29219 17.705 2.29078C17.5242 2.11106 17.2751 2 17 2H13C12.4477 2 12 2.44772 12 3C12 3.55228 12.4477 4 13 4H14.5858L11.2929 7.29289C10.9024 7.68342 10.9024 8.31658 11.2929 8.70711C11.6834 9.09763 12.3166 9.09763 12.7071 8.70711L16 5.41421V7C16 7.55228 16.4477 8 17 8C17.5523 8 18 7.55228 18 7V3C18 2.86441 17.973 2.73512 17.9241 2.61722Z" />
<path d="M2 3C2 2.44772 2.44772 2 3 2H5.15287C5.64171 2 6.0589 2.35341 6.13927 2.8356L6.87858 7.27147C6.95075 7.70451 6.73206 8.13397 6.3394 8.3303L4.79126 9.10437C5.90756 11.8783 8.12168 14.0924 10.8956 15.2087L11.6697 13.6606C11.866 13.2679 12.2955 13.0492 12.7285 13.1214L17.1644 13.8607C17.6466 13.9411 18 14.3583 18 14.8471V17C18 17.5523 17.5523 18 17 18H15C7.8203 18 2 12.1797 2 5V3Z" />
</svg>

<svg xmlns="http://www.w3.org/2000/svg" fill="currentColor" viewBox="0 0 20 20"><path d="M17.924 2.617a.997.997 0 0 0-.215-.322l-.004-.004A.997.997 0 0 0 17 2h-4a1 1 0 1 0 0 2h1.586l-3.293 3.293a1 1 0 0 0 1.414 1.414L16 5.414V7a1 1 0 1 0 2 0V3a.997.997 0 0 0-.076-.383Z"/><path d="M2 3a1 1 0 0 1 1-1h2.153a1 1 0 0 1 .986.836l.74 4.435a1 1 0 0 1-.54 1.06l-1.548.773a11.037 11.037 0 0 0 6.105 6.105l.774-1.548a1 1 0 0 1 1.059-.54l4.435.74a1 1 0 0 1 .836.986V17a1 1 0 0 1-1 1h-2C7.82 18 2 12.18 2 5V3Z"/></svg>
